X: 7577
T:the Pipers Cave
R:March
O:Scotland
M:2/4
C:James Sutherland
K:A
c>B|\
A3B A3B|c2f2 f2a>f|e2c2 c2B<A|c2B2 B2c>B|\
A3B A3B|c2f2 f2a>f|
e3c B2c>B|A4 A2 :: g2|\
a2f2 f2e<f|a2c2 c2a>f|e2c2 c2B<A|c2B2 B2g2|
|1\
a2f2 f2e<f|a2c2 c2a>f|e3c B2c>B|A4 A2:|2\
A3B A3B|c2f2 f2a>f|e3c B2c>B|A4 A2|]
